X:1
T:The Two Sisters
M:4/4
L:1/4
K:C
 G G/2G/2 B A| B d d2| A A B2| A E G2| G G/2G/2 B A| B d d3/2 d/2|\
 g g e3/2 d/2| e3- d| e e/2e/2 gg/2-e/2| d d B3/2- A/2| B/2B/2 B/2A/2 B/2A/2 G/2G/2|\
 B G E3/2 D/2| G G B A| G g e3/2 e/2| d B A3/2 G/2| G3 z|
